X:48
T: Schoen Elselein oder das Schwabentoechterlein
N: A0051
O: Europa, Mitteleuropa, Deutschland
N: Fuenfte Zeile: Refrain. Melodie in: Reutterliedlin 1535 No. 2.
R: Romanze, Ballade, Lied
M: 4/2
L: 1/4
K: D
A2 | _B2B2=c2c2 | d2d2A2
A2 | d2d2d2A2 | d4=c2
A2 | _B2B2A2A2 | G2G2D2
D2 | =F3GA2_B2 | =c3_BAGc2- | c2_BAG4 | =F8
A3_B=c2c2 | G2=F2D2E2 | D6

